( Made using CamBam - http://www.cambam.co.uk )
( Boitier 5/8/2019 12:57:37 PM )
( T0 : 2.0 )
G21 G90 G64 G40
G0 Z3.0
( T0 : 2.0 )
T0 M6
( Contour1 )
G17
M3 S1000
G0 X152.1667 Y30.5028
G0 Z1.0
G1 F20.0 Z-1.0
G3 F150.0 X180.6667 I14.25 J24.6817
G3 X194.9167 Y55.1845 I-14.25 J24.6817
G3 X180.6667 Y79.8662 I-28.5 J0.0
G3 X152.1667 I-14.25 J-24.6817
G3 X137.9167 Y55.1845 I14.25 J-24.6817
G3 X152.1667 Y30.5028 I28.5 J0.0
G1 F20.0 Z-2.0
G3 F150.0 X180.6667 I14.25 J24.6817
G3 X194.9167 Y55.1845 I-14.25 J24.6817
G3 X180.6667 Y79.8662 I-28.5 J0.0
G3 X152.1667 I-14.25 J-24.6817
G3 X137.9167 Y55.1845 I14.25 J-24.6817
G3 X152.1667 Y30.5028 I28.5 J0.0
G1 F20.0 Z-3.0
G3 F150.0 X163.4819 Y26.836 I14.25 J24.6817
G3 X164.9803 Y26.7207 Z-2.0 I2.9348 J28.3485
G3 X166.98 Y26.6901 I1.4364 J28.4638
G3 X168.4813 Y26.7594 Z-3.0 I-0.5634 J28.4944
G3 X180.6667 Y30.5028 I-2.0646 J28.4251
G3 X194.8701 Y53.5562 I-14.25 J24.6817
G3 X194.9164 Y55.0583 Z-2.0 I-28.4534 J1.6283
G3 X194.9167 Y55.1845 I-28.4997 J0.1262
G3 X194.8551 Y57.0574 I-28.5 J0.0
G3 X194.7168 Y58.5538 Z-3.0 I-28.4384 J-1.8729
G3 X180.6667 Y79.8662 I-28.3001 J-3.3693
G3 X168.4912 Y83.6089 I-14.25 J-24.6817
G3 X166.9899 Y83.6788 Z-2.0 I-2.0745 J-28.4244
G3 X164.9902 Y83.6488 I-0.5733 J-28.4942
G3 X163.4917 Y83.534 Z-3.0 I1.4265 J-28.4643
G3 X152.1667 Y79.8662 I2.925 J-28.3495
G3 X138.0265 Y57.6845 I14.25 J-24.6817
G3 X137.9342 Y56.1845 Z-2.0 I28.3901 J-2.5
G3 X137.9167 Y55.1845 I28.4825 J-1.0
G3 X137.9342 Y54.1845 I28.5 J0.0
G3 X138.0265 Y52.6845 Z-3.0 I28.4825 J1.0
G3 X152.1667 Y30.5028 I28.3901 J2.5
G1 F20.0 Z-4.0
G3 F150.0 X163.4819 Y26.836 I14.25 J24.6817
G3 X164.9803 Y26.7207 Z-2.0 I2.9348 J28.3485
G3 X166.98 Y26.6901 I1.4364 J28.4638
G3 X168.4813 Y26.7594 Z-4.0 I-0.5634 J28.4944
G3 X180.6667 Y30.5028 I-2.0646 J28.4251
G3 X194.8701 Y53.5562 I-14.25 J24.6817
G3 X194.9164 Y55.0583 Z-2.0 I-28.4534 J1.6283
G3 X194.9167 Y55.1845 I-28.4997 J0.1262
G3 X194.8551 Y57.0574 I-28.5 J0.0
G3 X194.7168 Y58.5538 Z-4.0 I-28.4384 J-1.8729
G3 X180.6667 Y79.8662 I-28.3001 J-3.3693
G3 X168.4912 Y83.6089 I-14.25 J-24.6817
G3 X166.9899 Y83.6788 Z-2.0 I-2.0745 J-28.4244
G3 X164.9902 Y83.6488 I-0.5733 J-28.4942
G3 X163.4917 Y83.534 Z-4.0 I1.4265 J-28.4643
G3 X152.1667 Y79.8662 I2.925 J-28.3495
G3 X138.0265 Y57.6845 I14.25 J-24.6817
G3 X137.9342 Y56.1845 Z-2.0 I28.3901 J-2.5
G3 X137.9167 Y55.1845 I28.4825 J-1.0
G3 X137.9342 Y54.1845 I28.5 J0.0
G3 X138.0265 Y52.6845 Z-4.0 I28.4825 J1.0
G3 X152.1667 Y30.5028 I28.3901 J2.5
G1 F20.0 Z-5.0
G3 F150.0 X163.4819 Y26.836 I14.25 J24.6817
G3 X164.9803 Y26.7207 Z-2.0 I2.9348 J28.3485
G3 X166.98 Y26.6901 I1.4364 J28.4638
G3 X168.4813 Y26.7594 Z-5.0 I-0.5634 J28.4944
G3 X180.6667 Y30.5028 I-2.0646 J28.4251
G3 X194.8701 Y53.5562 I-14.25 J24.6817
G3 X194.9164 Y55.0583 Z-2.0 I-28.4534 J1.6283
G3 X194.9167 Y55.1845 I-28.4997 J0.1262
G3 X194.8551 Y57.0574 I-28.5 J0.0
G3 X194.7168 Y58.5538 Z-5.0 I-28.4384 J-1.8729
G3 X180.6667 Y79.8662 I-28.3001 J-3.3693
G3 X168.4912 Y83.6089 I-14.25 J-24.6817
G3 X166.9899 Y83.6788 Z-2.0 I-2.0745 J-28.4244
G3 X164.9902 Y83.6488 I-0.5733 J-28.4942
G3 X163.4917 Y83.534 Z-5.0 I1.4265 J-28.4643
G3 X152.1667 Y79.8662 I2.925 J-28.3495
G3 X138.0265 Y57.6845 I14.25 J-24.6817
G3 X137.9342 Y56.1845 Z-2.0 I28.3901 J-2.5
G3 X137.9167 Y55.1845 I28.4825 J-1.0
G3 X137.9342 Y54.1845 I28.5 J0.0
G3 X138.0265 Y52.6845 Z-5.0 I28.4825 J1.0
G3 X152.1667 Y30.5028 I28.3901 J2.5
G0 F200
( Contour2 )
S1000
G0 Z3.0
G0 X150.0 Y14.1845
G0 Z1.0
G1 F20.0 Z-1.0
G1 F150.0 X155.4167
G1 Y10.1845
G3 X156.4167 Y9.1845 I1.0 J0.0
G1 X176.4167
G3 X177.4167 Y10.1845 I0.0 J1.0
G1 Y14.1845
G1 X216.4167
G3 X217.4167 Y15.1845 I0.0 J1.0
G1 Y45.1845
G3 X216.4167 Y46.1845 I-1.0 J0.0
G1 X212.4167
G1 Y64.1845
G1 X216.4167
G3 X217.4167 Y65.1845 I0.0 J1.0
G1 Y95.1845
G3 X216.4167 Y96.1845 I-1.0 J0.0
G1 X177.4167
G1 Y100.1845
G3 X176.4167 Y101.1845 I-1.0 J0.0
G1 X156.4167
G3 X155.4167 Y100.1845 I0.0 J-1.0
G1 Y96.1845
G1 X77.4167
G1 Y100.1845
G3 X76.4167 Y101.1845 I-1.0 J0.0
G1 X56.4167
G3 X55.4167 Y100.1845 I0.0 J-1.0
G1 Y96.1845
G1 X16.4167
G3 X15.4167 Y95.1845 I0.0 J-1.0
G1 Y65.1845
G3 X16.4167 Y64.1845 I1.0 J0.0
G1 X20.4167
G1 Y46.1845
G1 X16.4167
G3 X15.4167 Y45.1845 I0.0 J-1.0
G1 Y15.1845
G3 X16.4167 Y14.1845 I1.0 J0.0
G1 X55.4167
G1 Y10.1845
G3 X56.4167 Y9.1845 I1.0 J0.0
G1 X76.4167
G3 X77.4167 Y10.1845 I0.0 J1.0
G1 Y14.1845
G1 X150.0
G1 F20.0 Z-2.0
G1 F150.0 X155.4167
G1 Y10.1845
G3 X156.4167 Y9.1845 I1.0 J0.0
G1 X176.4167
G3 X177.4167 Y10.1845 I0.0 J1.0
G1 Y14.1845
G1 X216.4167
G3 X217.4167 Y15.1845 I0.0 J1.0
G1 Y45.1845
G3 X216.4167 Y46.1845 I-1.0 J0.0
G1 X212.4167
G1 Y64.1845
G1 X216.4167
G3 X217.4167 Y65.1845 I0.0 J1.0
G1 Y95.1845
G3 X216.4167 Y96.1845 I-1.0 J0.0
G1 X177.4167
G1 Y100.1845
G3 X176.4167 Y101.1845 I-1.0 J0.0
G1 X156.4167
G3 X155.4167 Y100.1845 I0.0 J-1.0
G1 Y96.1845
G1 X77.4167
G1 Y100.1845
G3 X76.4167 Y101.1845 I-1.0 J0.0
G1 X56.4167
G3 X55.4167 Y100.1845 I0.0 J-1.0
G1 Y96.1845
G1 X16.4167
G3 X15.4167 Y95.1845 I0.0 J-1.0
G1 Y65.1845
G3 X16.4167 Y64.1845 I1.0 J0.0
G1 X20.4167
G1 Y46.1845
G1 X16.4167
G3 X15.4167 Y45.1845 I0.0 J-1.0
G1 Y15.1845
G3 X16.4167 Y14.1845 I1.0 J0.0
G1 X55.4167
G1 Y10.1845
G3 X56.4167 Y9.1845 I1.0 J0.0
G1 X76.4167
G3 X77.4167 Y10.1845 I0.0 J1.0
G1 Y14.1845
G1 X150.0
G1 F20.0 Z-3.0
G1 F150.0 X155.4167
G1 Y10.1845
G3 X156.4167 Y9.1845 I1.0 J0.0
G1 X164.5
G1 X166.0 Z-2.0
G1 X168.0
G1 X169.5 Z-3.0
G1 X176.4167
G3 X177.4167 Y10.1845 I0.0 J1.0
G1 Y14.1845
G1 X216.4167
G3 X217.4167 Y15.1845 I0.0 J1.0
G1 Y45.1845
G3 X216.4167 Y46.1845 I-1.0 J0.0
G1 X212.4167
G1 Y52.5
G1 Y54.0 Z-2.0
G1 Y56.0
G1 Y57.5 Z-3.0
G1 Y64.1845
G1 X216.4167
G3 X217.4167 Y65.1845 I0.0 J1.0
G1 Y95.1845
G3 X216.4167 Y96.1845 I-1.0 J0.0
G1 X177.4167
G1 Y100.1845
G3 X176.4167 Y101.1845 I-1.0 J0.0
G1 X169.5
G1 X168.0 Z-2.0
G1 X166.0
G1 X164.5 Z-3.0
G1 X156.4167
G3 X155.4167 Y100.1845 I0.0 J-1.0
G1 Y96.1845
G1 X77.4167
G1 Y100.1845
G3 X76.4167 Y101.1845 I-1.0 J0.0
G1 X69.5
G1 X68.0 Z-2.0
G1 X66.0
G1 X64.5 Z-3.0
G1 X56.4167
G3 X55.4167 Y100.1845 I0.0 J-1.0
G1 Y96.1845
G1 X16.4167
G3 X15.4167 Y95.1845 I0.0 J-1.0
G1 Y65.1845
G3 X16.4167 Y64.1845 I1.0 J0.0
G1 X20.4167
G1 Y57.5
G1 Y56.0 Z-2.0
G1 Y54.0
G1 Y52.5 Z-3.0
G1 Y46.1845
G1 X16.4167
G3 X15.4167 Y45.1845 I0.0 J-1.0
G1 Y15.1845
G3 X16.4167 Y14.1845 I1.0 J0.0
G1 X55.4167
G1 Y10.1845
G3 X56.4167 Y9.1845 I1.0 J0.0
G1 X64.5
G1 X66.0 Z-2.0
G1 X68.0
G1 X69.5 Z-3.0
G1 X76.4167
G3 X77.4167 Y10.1845 I0.0 J1.0
G1 Y14.1845
G1 X150.0
G1 F20.0 Z-4.0
G1 F150.0 X155.4167
G1 Y10.1845
G3 X156.4167 Y9.1845 I1.0 J0.0
G1 X164.5
G1 X166.0 Z-2.0
G1 X168.0
G1 X169.5 Z-4.0
G1 X176.4167
G3 X177.4167 Y10.1845 I0.0 J1.0
G1 Y14.1845
G1 X216.4167
G3 X217.4167 Y15.1845 I0.0 J1.0
G1 Y45.1845
G3 X216.4167 Y46.1845 I-1.0 J0.0
G1 X212.4167
G1 Y52.5
G1 Y54.0 Z-2.0
G1 Y56.0
G1 Y57.5 Z-4.0
G1 Y64.1845
G1 X216.4167
G3 X217.4167 Y65.1845 I0.0 J1.0
G1 Y95.1845
G3 X216.4167 Y96.1845 I-1.0 J0.0
G1 X177.4167
G1 Y100.1845
G3 X176.4167 Y101.1845 I-1.0 J0.0
G1 X169.5
G1 X168.0 Z-2.0
G1 X166.0
G1 X164.5 Z-4.0
G1 X156.4167
G3 X155.4167 Y100.1845 I0.0 J-1.0
G1 Y96.1845
G1 X77.4167
G1 Y100.1845
G3 X76.4167 Y101.1845 I-1.0 J0.0
G1 X69.5
G1 X68.0 Z-2.0
G1 X66.0
G1 X64.5 Z-4.0
G1 X56.4167
G3 X55.4167 Y100.1845 I0.0 J-1.0
G1 Y96.1845
G1 X16.4167
G3 X15.4167 Y95.1845 I0.0 J-1.0
G1 Y65.1845
G3 X16.4167 Y64.1845 I1.0 J0.0
G1 X20.4167
G1 Y57.5
G1 Y56.0 Z-2.0
G1 Y54.0
G1 Y52.5 Z-4.0
G1 Y46.1845
G1 X16.4167
G3 X15.4167 Y45.1845 I0.0 J-1.0
G1 Y15.1845
G3 X16.4167 Y14.1845 I1.0 J0.0
G1 X55.4167
G1 Y10.1845
G3 X56.4167 Y9.1845 I1.0 J0.0
G1 X64.5
G1 X66.0 Z-2.0
G1 X68.0
G1 X69.5 Z-4.0
G1 X76.4167
G3 X77.4167 Y10.1845 I0.0 J1.0
G1 Y14.1845
G1 X150.0
G1 F20.0 Z-5.0
G1 F150.0 X155.4167
G1 Y10.1845
G3 X156.4167 Y9.1845 I1.0 J0.0
G1 X164.5
G1 X166.0 Z-2.0
G1 X168.0
G1 X169.5 Z-5.0
G1 X176.4167
G3 X177.4167 Y10.1845 I0.0 J1.0
G1 Y14.1845
G1 X216.4167
G3 X217.4167 Y15.1845 I0.0 J1.0
G1 Y45.1845
G3 X216.4167 Y46.1845 I-1.0 J0.0
G1 X212.4167
G1 Y52.5
G1 Y54.0 Z-2.0
G1 Y56.0
G1 Y57.5 Z-5.0
G1 Y64.1845
G1 X216.4167
G3 X217.4167 Y65.1845 I0.0 J1.0
G1 Y95.1845
G3 X216.4167 Y96.1845 I-1.0 J0.0
G1 X177.4167
G1 Y100.1845
G3 X176.4167 Y101.1845 I-1.0 J0.0
G1 X169.5
G1 X168.0 Z-2.0
G1 X166.0
G1 X164.5 Z-5.0
G1 X156.4167
G3 X155.4167 Y100.1845 I0.0 J-1.0
G1 Y96.1845
G1 X77.4167
G1 Y100.1845
G3 X76.4167 Y101.1845 I-1.0 J0.0
G1 X69.5
G1 X68.0 Z-2.0
G1 X66.0
G1 X64.5 Z-5.0
G1 X56.4167
G3 X55.4167 Y100.1845 I0.0 J-1.0
G1 Y96.1845
G1 X16.4167
G3 X15.4167 Y95.1845 I0.0 J-1.0
G1 Y65.1845
G3 X16.4167 Y64.1845 I1.0 J0.0
G1 X20.4167
G1 Y57.5
G1 Y56.0 Z-2.0
G1 Y54.0
G1 Y52.5 Z-5.0
G1 Y46.1845
G1 X16.4167
G3 X15.4167 Y45.1845 I0.0 J-1.0
G1 Y15.1845
G3 X16.4167 Y14.1845 I1.0 J0.0
G1 X55.4167
G1 Y10.1845
G3 X56.4167 Y9.1845 I1.0 J0.0
G1 X64.5
G1 X66.0 Z-2.0
G1 X68.0
G1 X69.5 Z-5.0
G1 X76.4167
G3 X77.4167 Y10.1845 I0.0 J1.0
G1 Y14.1845
G1 X150.0
G0 F200
( Contour3 )
S1000
G0 Z3.0
G0 X45.4815 Y140.0487
G0 Z1.0
G1 F20.0 Z-1.0
G1 F150.0 X63.4815
G1 Y125.0487
G1 X45.4815
G1 Y140.0487
G1 F20.0 Z-2.0
G1 F150.0 X63.4815
G1 Y125.0487
G1 X45.4815
G1 Y140.0487
G1 F20.0 Z-3.0
G1 F150.0 X63.4815
G1 Y134.5
G1 Y133.0 Z-2.0
G1 Y131.0
G1 Y129.5 Z-3.0
G1 Y125.0487
G1 X45.4815
G1 Y129.5
G1 Y131.0 Z-2.0
G1 Y133.0
G1 Y134.5 Z-3.0
G1 Y140.0487
G1 F20.0 Z-4.0
G1 F150.0 X63.4815
G1 Y134.5
G1 Y133.0 Z-2.0
G1 Y131.0
G1 Y129.5 Z-4.0
G1 Y125.0487
G1 X45.4815
G1 Y129.5
G1 Y131.0 Z-2.0
G1 Y133.0
G1 Y134.5 Z-4.0
G1 Y140.0487
G1 F20.0 Z-5.0
G1 F150.0 X63.4815
G1 Y134.5
G1 Y133.0 Z-2.0
G1 Y131.0
G1 Y129.5 Z-5.0
G1 Y125.0487
G1 X45.4815
G1 Y129.5
G1 Y131.0 Z-2.0
G1 Y133.0
G1 Y134.5 Z-5.0
G1 Y140.0487
G0 F200
( Contour4 )
S1000
G0 Z3.0
G0 X45.0 Y162.0487
G0 Z1.0
G1 F20.0 Z-1.0
G1 F150.0 X16.4815
G3 X15.4815 Y161.0487 I0.0 J-1.0
G1 Y146.0487
G3 X16.4815 Y145.0487 I1.0 J0.0
G1 X20.4815
G1 Y127.0487
G1 X16.4815
G3 X15.4815 Y126.0487 I0.0 J-1.0
G1 Y111.0487
G3 X16.4815 Y110.0487 I1.0 J0.0
G1 X55.4815
G1 Y106.0487
G3 X56.4815 Y105.0487 I1.0 J0.0
G1 X76.4815
G3 X77.4815 Y106.0487 I0.0 J1.0
G1 Y110.0487
G1 X155.4815
G1 Y106.0487
G3 X156.4815 Y105.0487 I1.0 J0.0
G1 X176.4815
G3 X177.4815 Y106.0487 I0.0 J1.0
G1 Y110.0487
G1 X216.4815
G3 X217.4815 Y111.0487 I0.0 J1.0
G1 Y126.0487
G3 X216.4815 Y127.0487 I-1.0 J0.0
G1 X212.4815
G1 Y145.0487
G1 X216.4815
G3 X217.4815 Y146.0487 I0.0 J1.0
G1 Y161.0487
G3 X216.4815 Y162.0487 I-1.0 J0.0
G1 X177.4815
G1 Y166.0487
G3 X176.4815 Y167.0487 I-1.0 J0.0
G1 X156.4815
G3 X155.4815 Y166.0487 I0.0 J-1.0
G1 Y162.0487
G1 X77.4815
G1 Y166.0487
G3 X76.4815 Y167.0487 I-1.0 J0.0
G1 X56.4815
G3 X55.4815 Y166.0487 I0.0 J-1.0
G1 Y162.0487
G1 X45.0
G1 F20.0 Z-2.0
G1 F150.0 X16.4815
G3 X15.4815 Y161.0487 I0.0 J-1.0
G1 Y146.0487
G3 X16.4815 Y145.0487 I1.0 J0.0
G1 X20.4815
G1 Y127.0487
G1 X16.4815
G3 X15.4815 Y126.0487 I0.0 J-1.0
G1 Y111.0487
G3 X16.4815 Y110.0487 I1.0 J0.0
G1 X55.4815
G1 Y106.0487
G3 X56.4815 Y105.0487 I1.0 J0.0
G1 X76.4815
G3 X77.4815 Y106.0487 I0.0 J1.0
G1 Y110.0487
G1 X155.4815
G1 Y106.0487
G3 X156.4815 Y105.0487 I1.0 J0.0
G1 X176.4815
G3 X177.4815 Y106.0487 I0.0 J1.0
G1 Y110.0487
G1 X216.4815
G3 X217.4815 Y111.0487 I0.0 J1.0
G1 Y126.0487
G3 X216.4815 Y127.0487 I-1.0 J0.0
G1 X212.4815
G1 Y145.0487
G1 X216.4815
G3 X217.4815 Y146.0487 I0.0 J1.0
G1 Y161.0487
G3 X216.4815 Y162.0487 I-1.0 J0.0
G1 X177.4815
G1 Y166.0487
G3 X176.4815 Y167.0487 I-1.0 J0.0
G1 X156.4815
G3 X155.4815 Y166.0487 I0.0 J-1.0
G1 Y162.0487
G1 X77.4815
G1 Y166.0487
G3 X76.4815 Y167.0487 I-1.0 J0.0
G1 X56.4815
G3 X55.4815 Y166.0487 I0.0 J-1.0
G1 Y162.0487
G1 X45.0
G1 F20.0 Z-3.0
G1 F150.0 X16.4815
G3 X15.4815 Y161.0487 I0.0 J-1.0
G1 Y146.0487
G3 X16.4815 Y145.0487 I1.0 J0.0
G1 X20.4815
G1 Y138.5
G1 Y137.0 Z-2.0
G1 Y135.0
G1 Y133.5 Z-3.0
G1 Y127.0487
G1 X16.4815
G3 X15.4815 Y126.0487 I0.0 J-1.0
G1 Y111.0487
G3 X16.4815 Y110.0487 I1.0 J0.0
G1 X55.4815
G1 Y106.0487
G3 X56.4815 Y105.0487 I1.0 J0.0
G1 X64.5
G1 X66.0 Z-2.0
G1 X68.0
G1 X69.5 Z-3.0
G1 X76.4815
G3 X77.4815 Y106.0487 I0.0 J1.0
G1 Y110.0487
G1 X155.4815
G1 Y106.0487
G3 X156.4815 Y105.0487 I1.0 J0.0
G1 X164.5
G1 X166.0 Z-2.0
G1 X168.0
G1 X169.5 Z-3.0
G1 X176.4815
G3 X177.4815 Y106.0487 I0.0 J1.0
G1 Y110.0487
G1 X216.4815
G3 X217.4815 Y111.0487 I0.0 J1.0
G1 Y126.0487
G3 X216.4815 Y127.0487 I-1.0 J0.0
G1 X212.4815
G1 Y133.5
G1 Y135.0 Z-2.0
G1 Y137.0
G1 Y138.5 Z-3.0
G1 Y145.0487
G1 X216.4815
G3 X217.4815 Y146.0487 I0.0 J1.0
G1 Y161.0487
G3 X216.4815 Y162.0487 I-1.0 J0.0
G1 X177.4815
G1 Y166.0487
G3 X176.4815 Y167.0487 I-1.0 J0.0
G1 X169.5
G1 X168.0 Z-2.0
G1 X166.0
G1 X164.5 Z-3.0
G1 X156.4815
G3 X155.4815 Y166.0487 I0.0 J-1.0
G1 Y162.0487
G1 X77.4815
G1 Y166.0487
G3 X76.4815 Y167.0487 I-1.0 J0.0
G1 X69.5
G1 X68.0 Z-2.0
G1 X66.0
G1 X64.5 Z-3.0
G1 X56.4815
G3 X55.4815 Y166.0487 I0.0 J-1.0
G1 Y162.0487
G1 X45.0
G1 F20.0 Z-4.0
G1 F150.0 X16.4815
G3 X15.4815 Y161.0487 I0.0 J-1.0
G1 Y146.0487
G3 X16.4815 Y145.0487 I1.0 J0.0
G1 X20.4815
G1 Y138.5
G1 Y137.0 Z-2.0
G1 Y135.0
G1 Y133.5 Z-4.0
G1 Y127.0487
G1 X16.4815
G3 X15.4815 Y126.0487 I0.0 J-1.0
G1 Y111.0487
G3 X16.4815 Y110.0487 I1.0 J0.0
G1 X55.4815
G1 Y106.0487
G3 X56.4815 Y105.0487 I1.0 J0.0
G1 X64.5
G1 X66.0 Z-2.0
G1 X68.0
G1 X69.5 Z-4.0
G1 X76.4815
G3 X77.4815 Y106.0487 I0.0 J1.0
G1 Y110.0487
G1 X155.4815
G1 Y106.0487
G3 X156.4815 Y105.0487 I1.0 J0.0
G1 X164.5
G1 X166.0 Z-2.0
G1 X168.0
G1 X169.5 Z-4.0
G1 X176.4815
G3 X177.4815 Y106.0487 I0.0 J1.0
G1 Y110.0487
G1 X216.4815
G3 X217.4815 Y111.0487 I0.0 J1.0
G1 Y126.0487
G3 X216.4815 Y127.0487 I-1.0 J0.0
G1 X212.4815
G1 Y133.5
G1 Y135.0 Z-2.0
G1 Y137.0
G1 Y138.5 Z-4.0
G1 Y145.0487
G1 X216.4815
G3 X217.4815 Y146.0487 I0.0 J1.0
G1 Y161.0487
G3 X216.4815 Y162.0487 I-1.0 J0.0
G1 X177.4815
G1 Y166.0487
G3 X176.4815 Y167.0487 I-1.0 J0.0
G1 X169.5
G1 X168.0 Z-2.0
G1 X166.0
G1 X164.5 Z-4.0
G1 X156.4815
G3 X155.4815 Y166.0487 I0.0 J-1.0
G1 Y162.0487
G1 X77.4815
G1 Y166.0487
G3 X76.4815 Y167.0487 I-1.0 J0.0
G1 X69.5
G1 X68.0 Z-2.0
G1 X66.0
G1 X64.5 Z-4.0
G1 X56.4815
G3 X55.4815 Y166.0487 I0.0 J-1.0
G1 Y162.0487
G1 X45.0
G1 F20.0 Z-5.0
G1 F150.0 X16.4815
G3 X15.4815 Y161.0487 I0.0 J-1.0
G1 Y146.0487
G3 X16.4815 Y145.0487 I1.0 J0.0
G1 X20.4815
G1 Y138.5
G1 Y137.0 Z-2.0
G1 Y135.0
G1 Y133.5 Z-5.0
G1 Y127.0487
G1 X16.4815
G3 X15.4815 Y126.0487 I0.0 J-1.0
G1 Y111.0487
G3 X16.4815 Y110.0487 I1.0 J0.0
G1 X55.4815
G1 Y106.0487
G3 X56.4815 Y105.0487 I1.0 J0.0
G1 X64.5
G1 X66.0 Z-2.0
G1 X68.0
G1 X69.5 Z-5.0
G1 X76.4815
G3 X77.4815 Y106.0487 I0.0 J1.0
G1 Y110.0487
G1 X155.4815
G1 Y106.0487
G3 X156.4815 Y105.0487 I1.0 J0.0
G1 X164.5
G1 X166.0 Z-2.0
G1 X168.0
G1 X169.5 Z-5.0
G1 X176.4815
G3 X177.4815 Y106.0487 I0.0 J1.0
G1 Y110.0487
G1 X216.4815
G3 X217.4815 Y111.0487 I0.0 J1.0
G1 Y126.0487
G3 X216.4815 Y127.0487 I-1.0 J0.0
G1 X212.4815
G1 Y133.5
G1 Y135.0 Z-2.0
G1 Y137.0
G1 Y138.5 Z-5.0
G1 Y145.0487
G1 X216.4815
G3 X217.4815 Y146.0487 I0.0 J1.0
G1 Y161.0487
G3 X216.4815 Y162.0487 I-1.0 J0.0
G1 X177.4815
G1 Y166.0487
G3 X176.4815 Y167.0487 I-1.0 J0.0
G1 X169.5
G1 X168.0 Z-2.0
G1 X166.0
G1 X164.5 Z-5.0
G1 X156.4815
G3 X155.4815 Y166.0487 I0.0 J-1.0
G1 Y162.0487
G1 X77.4815
G1 Y166.0487
G3 X76.4815 Y167.0487 I-1.0 J0.0
G1 X69.5
G1 X68.0 Z-2.0
G1 X66.0
G1 X64.5 Z-5.0
G1 X56.4815
G3 X55.4815 Y166.0487 I0.0 J-1.0
G1 Y162.0487
G1 X45.0
G0 F200
( Contour5 )
S1000
G0 Z3.0
G0 X46.3038 Y215.3226
G0 Z1.0
G1 F20.0 Z-1.0
G2 F150.0 X46.0538 Y215.7556 I0.25 J0.433
G2 X46.3038 Y216.1886 I0.5 J0.0
G2 X46.8038 I0.25 J-0.433
G2 X47.0538 Y215.7556 I-0.25 J-0.433
G2 X46.8038 Y215.3226 I-0.5 J0.0
G2 X46.3038 I-0.25 J0.433
G1 F20.0 Z-2.0
G2 F150.0 X46.0538 Y215.7556 I0.25 J0.433
G2 X46.3038 Y216.1886 I0.5 J0.0
G2 X46.8038 I0.25 J-0.433
G2 X47.0538 Y215.7556 I-0.25 J-0.433
G2 X46.8038 Y215.3226 I-0.5 J0.0
G2 X46.3038 I-0.25 J0.433
G1 F20.0 Z-3.0
G2 F150.0 X46.0538 Y215.7556 I0.25 J0.433
G2 X46.3038 Y216.1886 I0.5 J0.0
G2 X46.8038 I0.25 J-0.433
G2 X47.0538 Y215.7556 I-0.25 J-0.433
G2 X46.8038 Y215.3226 I-0.5 J0.0
G2 X46.3038 I-0.25 J0.433
G1 F20.0 Z-4.0
G2 F150.0 X46.0538 Y215.7556 I0.25 J0.433
G2 X46.3038 Y216.1886 I0.5 J0.0
G2 X46.8038 I0.25 J-0.433
G2 X47.0538 Y215.7556 I-0.25 J-0.433
G2 X46.8038 Y215.3226 I-0.5 J0.0
G2 X46.3038 I-0.25 J0.433
G1 F20.0 Z-5.0
G2 F150.0 X46.0538 Y215.7556 I0.25 J0.433
G2 X46.3038 Y216.1886 I0.5 J0.0
G2 X46.8038 I0.25 J-0.433
G2 X47.0538 Y215.7556 I-0.25 J-0.433
G2 X46.8038 Y215.3226 I-0.5 J0.0
G2 X46.3038 I-0.25 J0.433
G0 F200
( Contour6 )
S1000
G0 Z3.0
G0 X121.8038 Y216.1886
G0 Z1.0
G1 F20.0 Z-1.0
G2 F150.0 X122.0538 Y215.7556 I-0.25 J-0.433
G2 X121.8038 Y215.3226 I-0.5 J0.0
G2 X121.3038 I-0.25 J0.433
G2 X121.0538 Y215.7556 I0.25 J0.433
G2 X121.3038 Y216.1886 I0.5 J0.0
G2 X121.8038 I0.25 J-0.433
G1 F20.0 Z-2.0
G2 F150.0 X122.0538 Y215.7556 I-0.25 J-0.433
G2 X121.8038 Y215.3226 I-0.5 J0.0
G2 X121.3038 I-0.25 J0.433
G2 X121.0538 Y215.7556 I0.25 J0.433
G2 X121.3038 Y216.1886 I0.5 J0.0
G2 X121.8038 I0.25 J-0.433
G1 F20.0 Z-3.0
G2 F150.0 X122.0538 Y215.7556 I-0.25 J-0.433
G2 X121.8038 Y215.3226 I-0.5 J0.0
G2 X121.3038 I-0.25 J0.433
G2 X121.0538 Y215.7556 I0.25 J0.433
G2 X121.3038 Y216.1886 I0.5 J0.0
G2 X121.8038 I0.25 J-0.433
G1 F20.0 Z-4.0
G2 F150.0 X122.0538 Y215.7556 I-0.25 J-0.433
G2 X121.8038 Y215.3226 I-0.5 J0.0
G2 X121.3038 I-0.25 J0.433
G2 X121.0538 Y215.7556 I0.25 J0.433
G2 X121.3038 Y216.1886 I0.5 J0.0
G2 X121.8038 I0.25 J-0.433
G1 F20.0 Z-5.0
G2 F150.0 X122.0538 Y215.7556 I-0.25 J-0.433
G2 X121.8038 Y215.3226 I-0.5 J0.0
G2 X121.3038 I-0.25 J0.433
G2 X121.0538 Y215.7556 I0.25 J0.433
G2 X121.3038 Y216.1886 I0.5 J0.0
G2 X121.8038 I0.25 J-0.433
G0 F200
( Contour7 )
S1000
G0 Z3.0
G0 X46.3038 Y246.3226
G0 Z1.0
G1 F20.0 Z-1.0
G2 F150.0 X46.0538 Y246.7556 I0.25 J0.433
G2 X46.3038 Y247.1886 I0.5 J0.0
G2 X46.8038 I0.25 J-0.433
G2 X47.0538 Y246.7556 I-0.25 J-0.433
G2 X46.8038 Y246.3226 I-0.5 J0.0
G2 X46.3038 I-0.25 J0.433
G1 F20.0 Z-2.0
G2 F150.0 X46.0538 Y246.7556 I0.25 J0.433
G2 X46.3038 Y247.1886 I0.5 J0.0
G2 X46.8038 I0.25 J-0.433
G2 X47.0538 Y246.7556 I-0.25 J-0.433
G2 X46.8038 Y246.3226 I-0.5 J0.0
G2 X46.3038 I-0.25 J0.433
G1 F20.0 Z-3.0
G2 F150.0 X46.0538 Y246.7556 I0.25 J0.433
G2 X46.3038 Y247.1886 I0.5 J0.0
G2 X46.8038 I0.25 J-0.433
G2 X47.0538 Y246.7556 I-0.25 J-0.433
G2 X46.8038 Y246.3226 I-0.5 J0.0
G2 X46.3038 I-0.25 J0.433
G1 F20.0 Z-4.0
G2 F150.0 X46.0538 Y246.7556 I0.25 J0.433
G2 X46.3038 Y247.1886 I0.5 J0.0
G2 X46.8038 I0.25 J-0.433
G2 X47.0538 Y246.7556 I-0.25 J-0.433
G2 X46.8038 Y246.3226 I-0.5 J0.0
G2 X46.3038 I-0.25 J0.433
G1 F20.0 Z-5.0
G2 F150.0 X46.0538 Y246.7556 I0.25 J0.433
G2 X46.3038 Y247.1886 I0.5 J0.0
G2 X46.8038 I0.25 J-0.433
G2 X47.0538 Y246.7556 I-0.25 J-0.433
G2 X46.8038 Y246.3226 I-0.5 J0.0
G2 X46.3038 I-0.25 J0.433
G0 F200
( Contour8 )
S1000
G0 Z3.0
G0 X121.3038
G0 Z1.0
G1 F20.0 Z-1.0
G2 F150.0 X121.0538 Y246.7556 I0.25 J0.433
G2 X121.3038 Y247.1886 I0.5 J0.0
G2 X121.8038 I0.25 J-0.433
G2 X122.0538 Y246.7556 I-0.25 J-0.433
G2 X121.8038 Y246.3226 I-0.5 J0.0
G2 X121.3038 I-0.25 J0.433
G1 F20.0 Z-2.0
G2 F150.0 X121.0538 Y246.7556 I0.25 J0.433
G2 X121.3038 Y247.1886 I0.5 J0.0
G2 X121.8038 I0.25 J-0.433
G2 X122.0538 Y246.7556 I-0.25 J-0.433
G2 X121.8038 Y246.3226 I-0.5 J0.0
G2 X121.3038 I-0.25 J0.433
G1 F20.0 Z-3.0
G2 F150.0 X121.0538 Y246.7556 I0.25 J0.433
G2 X121.3038 Y247.1886 I0.5 J0.0
G2 X121.8038 I0.25 J-0.433
G2 X122.0538 Y246.7556 I-0.25 J-0.433
G2 X121.8038 Y246.3226 I-0.5 J0.0
G2 X121.3038 I-0.25 J0.433
G1 F20.0 Z-4.0
G2 F150.0 X121.0538 Y246.7556 I0.25 J0.433
G2 X121.3038 Y247.1886 I0.5 J0.0
G2 X121.8038 I0.25 J-0.433
G2 X122.0538 Y246.7556 I-0.25 J-0.433
G2 X121.8038 Y246.3226 I-0.5 J0.0
G2 X121.3038 I-0.25 J0.433
G1 F20.0 Z-5.0
G2 F150.0 X121.0538 Y246.7556 I0.25 J0.433
G2 X121.3038 Y247.1886 I0.5 J0.0
G2 X121.8038 I0.25 J-0.433
G2 X122.0538 Y246.7556 I-0.25 J-0.433
G2 X121.8038 Y246.3226 I-0.5 J0.0
G2 X121.3038 I-0.25 J0.433
G0 F200
( Contour9 )
S1000
G0 Z3.0
G0 X119.0538 Y238.0
G0 Z1.0
G1 F20.0 Z-1.0
G1 F150.0 Y219.0056
G1 X49.0538
G1 Y241.5056
G1 X119.0538
G1 Y238.0
G1 F20.0 Z-2.0
G1 F150.0 Y219.0056
G1 X49.0538
G1 Y241.5056
G1 X119.0538
G1 Y238.0
G1 F20.0 Z-3.0
G1 F150.0 Y219.0056
G1 X111.5
G1 X110.0 Z-2.0
G1 X108.0
G1 X106.5 Z-3.0
G1 X62.5
G1 X61.0 Z-2.0
G1 X59.0
G1 X57.5 Z-3.0
G1 X49.0538
G1 Y241.5056
G1 X57.5
G1 X59.0 Z-2.0
G1 X61.0
G1 X62.5 Z-3.0
G1 X106.5
G1 X108.0 Z-2.0
G1 X110.0
G1 X111.5 Z-3.0
G1 X119.0538
G1 Y238.0
G1 F20.0 Z-4.0
G1 F150.0 Y219.0056
G1 X111.5
G1 X110.0 Z-2.0
G1 X108.0
G1 X106.5 Z-4.0
G1 X62.5
G1 X61.0 Z-2.0
G1 X59.0
G1 X57.5 Z-4.0
G1 X49.0538
G1 Y241.5056
G1 X57.5
G1 X59.0 Z-2.0
G1 X61.0
G1 X62.5 Z-4.0
G1 X106.5
G1 X108.0 Z-2.0
G1 X110.0
G1 X111.5 Z-4.0
G1 X119.0538
G1 Y238.0
G1 F20.0 Z-5.0
G1 F150.0 Y219.0056
G1 X111.5
G1 X110.0 Z-2.0
G1 X108.0
G1 X106.5 Z-5.0
G1 X62.5
G1 X61.0 Z-2.0
G1 X59.0
G1 X57.5 Z-5.0
G1 X49.0538
G1 Y241.5056
G1 X57.5
G1 X59.0 Z-2.0
G1 X61.0
G1 X62.5 Z-5.0
G1 X106.5
G1 X108.0 Z-2.0
G1 X110.0
G1 X111.5 Z-5.0
G1 X119.0538
G1 Y238.0
G0 F200
( Contour10 )
S1000
G0 Z3.0
G0 X167.8038 Y228.5906
G0 Z1.0
G1 F20.0 Z-1.0
G2 F150.0 X165.3039 I-1.25 J2.1651
G2 X164.0539 Y230.7556 I1.25 J2.1651
G2 X165.3039 Y232.9207 I2.5 J0.0
G2 X167.8038 I1.25 J-2.1651
G2 X169.0539 Y230.7556 I-1.25 J-2.1651
G2 X167.8038 Y228.5906 I-2.5 J0.0
G1 F20.0 Z-2.0
G2 F150.0 X165.3039 I-1.25 J2.1651
G2 X164.0539 Y230.7556 I1.25 J2.1651
G2 X165.3039 Y232.9207 I2.5 J0.0
G2 X167.8038 I1.25 J-2.1651
G2 X169.0539 Y230.7556 I-1.25 J-2.1651
G2 X167.8038 Y228.5906 I-2.5 J0.0
G1 F20.0 Z-3.0
G2 F150.0 X165.3039 I-1.25 J2.1651
G2 X164.0539 Y230.7556 I1.25 J2.1651
G2 X165.3039 Y232.9207 I2.5 J0.0
G2 X167.8038 I1.25 J-2.1651
G2 X169.0539 Y230.7556 I-1.25 J-2.1651
G2 X167.8038 Y228.5906 I-2.5 J0.0
G1 F20.0 Z-4.0
G2 F150.0 X165.3039 I-1.25 J2.1651
G2 X164.0539 Y230.7556 I1.25 J2.1651
G2 X165.3039 Y232.9207 I2.5 J0.0
G2 X167.8038 I1.25 J-2.1651
G2 X169.0539 Y230.7556 I-1.25 J-2.1651
G2 X167.8038 Y228.5906 I-2.5 J0.0
G1 F20.0 Z-5.0
G2 F150.0 X165.3039 I-1.25 J2.1651
G2 X164.0539 Y230.7556 I1.25 J2.1651
G2 X165.3039 Y232.9207 I2.5 J0.0
G2 X167.8038 I1.25 J-2.1651
G2 X169.0539 Y230.7556 I-1.25 J-2.1651
G2 X167.8038 Y228.5906 I-2.5 J0.0
G0 F200
( Contour11 )
S1000
G0 Z3.0
G0 X217.5538 Y252.0
G0 Z1.0
G1 F20.0 Z-1.0
G1 F150.0 Y294.7556
G3 X216.5538 Y295.7556 I-1.0 J0.0
G1 X176.5538
G3 X175.5538 Y294.7556 I0.0 J-1.0
G1 Y290.7556
G1 X157.5538
G1 Y294.7556
G3 X156.5538 Y295.7556 I-1.0 J0.0
G1 X76.5538
G3 X75.5538 Y294.7556 I0.0 J-1.0
G1 Y290.7556
G1 X57.5538
G1 Y294.7556
G3 X56.5538 Y295.7556 I-1.0 J0.0
G1 X16.5538
G3 X15.5538 Y294.7556 I0.0 J-1.0
G1 Y242.7556
G3 X16.5538 Y241.7556 I1.0 J0.0
G1 X20.5538
G1 Y223.7556
G1 X16.5538
G3 X15.5538 Y222.7556 I0.0 J-1.0
G1 Y170.7556
G3 X16.5538 Y169.7556 I1.0 J0.0
G1 X56.5538
G3 X57.5538 Y170.7556 I0.0 J1.0
G1 Y174.7556
G1 X75.5538
G1 Y170.7556
G3 X76.5538 Y169.7556 I1.0 J0.0
G1 X156.5538
G3 X157.5538 Y170.7556 I0.0 J1.0
G1 Y174.7556
G1 X175.5538
G1 Y170.7556
G3 X176.5538 Y169.7556 I1.0 J0.0
G1 X216.5538
G3 X217.5538 Y170.7556 I0.0 J1.0
G1 Y222.7556
G3 X216.5538 Y223.7556 I-1.0 J0.0
G1 X212.5538
G1 Y241.7556
G1 X216.5538
G3 X217.5538 Y242.7556 I0.0 J1.0
G1 Y252.0
G1 F20.0 Z-2.0
G1 F150.0 Y294.7556
G3 X216.5538 Y295.7556 I-1.0 J0.0
G1 X176.5538
G3 X175.5538 Y294.7556 I0.0 J-1.0
G1 Y290.7556
G1 X157.5538
G1 Y294.7556
G3 X156.5538 Y295.7556 I-1.0 J0.0
G1 X76.5538
G3 X75.5538 Y294.7556 I0.0 J-1.0
G1 Y290.7556
G1 X57.5538
G1 Y294.7556
G3 X56.5538 Y295.7556 I-1.0 J0.0
G1 X16.5538
G3 X15.5538 Y294.7556 I0.0 J-1.0
G1 Y242.7556
G3 X16.5538 Y241.7556 I1.0 J0.0
G1 X20.5538
G1 Y223.7556
G1 X16.5538
G3 X15.5538 Y222.7556 I0.0 J-1.0
G1 Y170.7556
G3 X16.5538 Y169.7556 I1.0 J0.0
G1 X56.5538
G3 X57.5538 Y170.7556 I0.0 J1.0
G1 Y174.7556
G1 X75.5538
G1 Y170.7556
G3 X76.5538 Y169.7556 I1.0 J0.0
G1 X156.5538
G3 X157.5538 Y170.7556 I0.0 J1.0
G1 Y174.7556
G1 X175.5538
G1 Y170.7556
G3 X176.5538 Y169.7556 I1.0 J0.0
G1 X216.5538
G3 X217.5538 Y170.7556 I0.0 J1.0
G1 Y222.7556
G3 X216.5538 Y223.7556 I-1.0 J0.0
G1 X212.5538
G1 Y241.7556
G1 X216.5538
G3 X217.5538 Y242.7556 I0.0 J1.0
G1 Y252.0
G1 F20.0 Z-3.0
G1 F150.0 Y294.7556
G3 X216.5538 Y295.7556 I-1.0 J0.0
G1 X176.5538
G3 X175.5538 Y294.7556 I0.0 J-1.0
G1 Y290.7556
G1 X168.5
G1 X167.0 Z-2.0
G1 X165.0
G1 X163.5 Z-3.0
G1 X157.5538
G1 Y294.7556
G3 X156.5538 Y295.7556 I-1.0 J0.0
G1 X76.5538
G3 X75.5538 Y294.7556 I0.0 J-1.0
G1 Y290.7556
G1 X68.5
G1 X67.0 Z-2.0
G1 X65.0
G1 X63.5 Z-3.0
G1 X57.5538
G1 Y294.7556
G3 X56.5538 Y295.7556 I-1.0 J0.0
G1 X16.5538
G3 X15.5538 Y294.7556 I0.0 J-1.0
G1 Y242.7556
G3 X16.5538 Y241.7556 I1.0 J0.0
G1 X20.5538
G1 Y234.5
G1 Y233.0 Z-2.0
G1 Y231.0
G1 Y229.5 Z-3.0
G1 Y223.7556
G1 X16.5538
G3 X15.5538 Y222.7556 I0.0 J-1.0
G1 Y170.7556
G3 X16.5538 Y169.7556 I1.0 J0.0
G1 X56.5538
G3 X57.5538 Y170.7556 I0.0 J1.0
G1 Y174.7556
G1 X64.5
G1 X66.0 Z-2.0
G1 X68.0
G1 X69.5 Z-3.0
G1 X75.5538
G1 Y170.7556
G3 X76.5538 Y169.7556 I1.0 J0.0
G1 X156.5538
G3 X157.5538 Y170.7556 I0.0 J1.0
G1 Y174.7556
G1 X163.5
G1 X165.0 Z-2.0
G1 X167.0
G1 X168.5 Z-3.0
G1 X175.5538
G1 Y170.7556
G3 X176.5538 Y169.7556 I1.0 J0.0
G1 X216.5538
G3 X217.5538 Y170.7556 I0.0 J1.0
G1 Y222.7556
G3 X216.5538 Y223.7556 I-1.0 J0.0
G1 X212.5538
G1 Y229.5
G1 Y231.0 Z-2.0
G1 Y233.0
G1 Y234.5 Z-3.0
G1 Y241.7556
G1 X216.5538
G3 X217.5538 Y242.7556 I0.0 J1.0
G1 Y252.0
G1 F20.0 Z-4.0
G1 F150.0 Y294.7556
G3 X216.5538 Y295.7556 I-1.0 J0.0
G1 X176.5538
G3 X175.5538 Y294.7556 I0.0 J-1.0
G1 Y290.7556
G1 X168.5
G1 X167.0 Z-2.0
G1 X165.0
G1 X163.5 Z-4.0
G1 X157.5538
G1 Y294.7556
G3 X156.5538 Y295.7556 I-1.0 J0.0
G1 X76.5538
G3 X75.5538 Y294.7556 I0.0 J-1.0
G1 Y290.7556
G1 X68.5
G1 X67.0 Z-2.0
G1 X65.0
G1 X63.5 Z-4.0
G1 X57.5538
G1 Y294.7556
G3 X56.5538 Y295.7556 I-1.0 J0.0
G1 X16.5538
G3 X15.5538 Y294.7556 I0.0 J-1.0
G1 Y242.7556
G3 X16.5538 Y241.7556 I1.0 J0.0
G1 X20.5538
G1 Y234.5
G1 Y233.0 Z-2.0
G1 Y231.0
G1 Y229.5 Z-4.0
G1 Y223.7556
G1 X16.5538
G3 X15.5538 Y222.7556 I0.0 J-1.0
G1 Y170.7556
G3 X16.5538 Y169.7556 I1.0 J0.0
G1 X56.5538
G3 X57.5538 Y170.7556 I0.0 J1.0
G1 Y174.7556
G1 X64.5
G1 X66.0 Z-2.0
G1 X68.0
G1 X69.5 Z-4.0
G1 X75.5538
G1 Y170.7556
G3 X76.5538 Y169.7556 I1.0 J0.0
G1 X156.5538
G3 X157.5538 Y170.7556 I0.0 J1.0
G1 Y174.7556
G1 X163.5
G1 X165.0 Z-2.0
G1 X167.0
G1 X168.5 Z-4.0
G1 X175.5538
G1 Y170.7556
G3 X176.5538 Y169.7556 I1.0 J0.0
G1 X216.5538
G3 X217.5538 Y170.7556 I0.0 J1.0
G1 Y222.7556
G3 X216.5538 Y223.7556 I-1.0 J0.0
G1 X212.5538
G1 Y229.5
G1 Y231.0 Z-2.0
G1 Y233.0
G1 Y234.5 Z-4.0
G1 Y241.7556
G1 X216.5538
G3 X217.5538 Y242.7556 I0.0 J1.0
G1 Y252.0
G1 F20.0 Z-5.0
G1 F150.0 Y294.7556
G3 X216.5538 Y295.7556 I-1.0 J0.0
G1 X176.5538
G3 X175.5538 Y294.7556 I0.0 J-1.0
G1 Y290.7556
G1 X168.5
G1 X167.0 Z-2.0
G1 X165.0
G1 X163.5 Z-5.0
G1 X157.5538
G1 Y294.7556
G3 X156.5538 Y295.7556 I-1.0 J0.0
G1 X76.5538
G3 X75.5538 Y294.7556 I0.0 J-1.0
G1 Y290.7556
G1 X68.5
G1 X67.0 Z-2.0
G1 X65.0
G1 X63.5 Z-5.0
G1 X57.5538
G1 Y294.7556
G3 X56.5538 Y295.7556 I-1.0 J0.0
G1 X16.5538
G3 X15.5538 Y294.7556 I0.0 J-1.0
G1 Y242.7556
G3 X16.5538 Y241.7556 I1.0 J0.0
G1 X20.5538
G1 Y234.5
G1 Y233.0 Z-2.0
G1 Y231.0
G1 Y229.5 Z-5.0
G1 Y223.7556
G1 X16.5538
G3 X15.5538 Y222.7556 I0.0 J-1.0
G1 Y170.7556
G3 X16.5538 Y169.7556 I1.0 J0.0
G1 X56.5538
G3 X57.5538 Y170.7556 I0.0 J1.0
G1 Y174.7556
G1 X64.5
G1 X66.0 Z-2.0
G1 X68.0
G1 X69.5 Z-5.0
G1 X75.5538
G1 Y170.7556
G3 X76.5538 Y169.7556 I1.0 J0.0
G1 X156.5538
G3 X157.5538 Y170.7556 I0.0 J1.0
G1 Y174.7556
G1 X163.5
G1 X165.0 Z-2.0
G1 X167.0
G1 X168.5 Z-5.0
G1 X175.5538
G1 Y170.7556
G3 X176.5538 Y169.7556 I1.0 J0.0
G1 X216.5538
G3 X217.5538 Y170.7556 I0.0 J1.0
G1 Y222.7556
G3 X216.5538 Y223.7556 I-1.0 J0.0
G1 X212.5538
G1 Y229.5
G1 Y231.0 Z-2.0
G1 Y233.0
G1 Y234.5 Z-5.0
G1 Y241.7556
G1 X216.5538
G3 X217.5538 Y242.7556 I0.0 J1.0
G1 Y252.0
G0 F200
( Contour12 )
S1000
G0 Z3.0
G0 X36.3098 Y321.1281
G0 Z1.0
G1 F20.0 Z-1.0
G2 F150.0 X36.0598 Y321.5611 I0.25 J0.433
G2 X36.3098 Y321.9941 I0.5 J0.0
G2 X36.8098 I0.25 J-0.433
G2 X37.0598 Y321.5611 I-0.25 J-0.433
G2 X36.8098 Y321.1281 I-0.5 J0.0
G2 X36.3098 I-0.25 J0.433
G1 F20.0 Z-2.0
G2 F150.0 X36.0598 Y321.5611 I0.25 J0.433
G2 X36.3098 Y321.9941 I0.5 J0.0
G2 X36.8098 I0.25 J-0.433
G2 X37.0598 Y321.5611 I-0.25 J-0.433
G2 X36.8098 Y321.1281 I-0.5 J0.0
G2 X36.3098 I-0.25 J0.433
G1 F20.0 Z-3.0
G2 F150.0 X36.0598 Y321.5611 I0.25 J0.433
G2 X36.3098 Y321.9941 I0.5 J0.0
G2 X36.8098 I0.25 J-0.433
G2 X37.0598 Y321.5611 I-0.25 J-0.433
G2 X36.8098 Y321.1281 I-0.5 J0.0
G2 X36.3098 I-0.25 J0.433
G1 F20.0 Z-4.0
G2 F150.0 X36.0598 Y321.5611 I0.25 J0.433
G2 X36.3098 Y321.9941 I0.5 J0.0
G2 X36.8098 I0.25 J-0.433
G2 X37.0598 Y321.5611 I-0.25 J-0.433
G2 X36.8098 Y321.1281 I-0.5 J0.0
G2 X36.3098 I-0.25 J0.433
G1 F20.0 Z-5.0
G2 F150.0 X36.0598 Y321.5611 I0.25 J0.433
G2 X36.3098 Y321.9941 I0.5 J0.0
G2 X36.8098 I0.25 J-0.433
G2 X37.0598 Y321.5611 I-0.25 J-0.433
G2 X36.8098 Y321.1281 I-0.5 J0.0
G2 X36.3098 I-0.25 J0.433
G0 F200
( Contour13 )
S1000
G0 Z3.0
G0 Y382.1281
G0 Z1.0
G1 F20.0 Z-1.0
G2 F150.0 X36.0598 Y382.5611 I0.25 J0.433
G2 X36.3098 Y382.9941 I0.5 J0.0
G2 X36.8098 I0.25 J-0.433
G2 X37.0598 Y382.5611 I-0.25 J-0.433
G2 X36.8098 Y382.1281 I-0.5 J0.0
G2 X36.3098 I-0.25 J0.433
G1 F20.0 Z-2.0
G2 F150.0 X36.0598 Y382.5611 I0.25 J0.433
G2 X36.3098 Y382.9941 I0.5 J0.0
G2 X36.8098 I0.25 J-0.433
G2 X37.0598 Y382.5611 I-0.25 J-0.433
G2 X36.8098 Y382.1281 I-0.5 J0.0
G2 X36.3098 I-0.25 J0.433
G1 F20.0 Z-3.0
G2 F150.0 X36.0598 Y382.5611 I0.25 J0.433
G2 X36.3098 Y382.9941 I0.5 J0.0
G2 X36.8098 I0.25 J-0.433
G2 X37.0598 Y382.5611 I-0.25 J-0.433
G2 X36.8098 Y382.1281 I-0.5 J0.0
G2 X36.3098 I-0.25 J0.433
G1 F20.0 Z-4.0
G2 F150.0 X36.0598 Y382.5611 I0.25 J0.433
G2 X36.3098 Y382.9941 I0.5 J0.0
G2 X36.8098 I0.25 J-0.433
G2 X37.0598 Y382.5611 I-0.25 J-0.433
G2 X36.8098 Y382.1281 I-0.5 J0.0
G2 X36.3098 I-0.25 J0.433
G1 F20.0 Z-5.0
G2 F150.0 X36.0598 Y382.5611 I0.25 J0.433
G2 X36.3098 Y382.9941 I0.5 J0.0
G2 X36.8098 I0.25 J-0.433
G2 X37.0598 Y382.5611 I-0.25 J-0.433
G2 X36.8098 Y382.1281 I-0.5 J0.0
G2 X36.3098 I-0.25 J0.433
G0 F200
( Contour14 )
S1000
G0 Z3.0
G0 X131.3098
G0 Z1.0
G1 F20.0 Z-1.0
G2 F150.0 X131.0598 Y382.5611 I0.25 J0.433
G2 X131.3098 Y382.9941 I0.5 J0.0
G2 X131.8098 I0.25 J-0.433
G2 X132.0598 Y382.5611 I-0.25 J-0.433
G2 X131.8098 Y382.1281 I-0.5 J0.0
G2 X131.3098 I-0.25 J0.433
G1 F20.0 Z-2.0
G2 F150.0 X131.0598 Y382.5611 I0.25 J0.433
G2 X131.3098 Y382.9941 I0.5 J0.0
G2 X131.8098 I0.25 J-0.433
G2 X132.0598 Y382.5611 I-0.25 J-0.433
G2 X131.8098 Y382.1281 I-0.5 J0.0
G2 X131.3098 I-0.25 J0.433
G1 F20.0 Z-3.0
G2 F150.0 X131.0598 Y382.5611 I0.25 J0.433
G2 X131.3098 Y382.9941 I0.5 J0.0
G2 X131.8098 I0.25 J-0.433
G2 X132.0598 Y382.5611 I-0.25 J-0.433
G2 X131.8098 Y382.1281 I-0.5 J0.0
G2 X131.3098 I-0.25 J0.433
G1 F20.0 Z-4.0
G2 F150.0 X131.0598 Y382.5611 I0.25 J0.433
G2 X131.3098 Y382.9941 I0.5 J0.0
G2 X131.8098 I0.25 J-0.433
G2 X132.0598 Y382.5611 I-0.25 J-0.433
G2 X131.8098 Y382.1281 I-0.5 J0.0
G2 X131.3098 I-0.25 J0.433
G1 F20.0 Z-5.0
G2 F150.0 X131.0598 Y382.5611 I0.25 J0.433
G2 X131.3098 Y382.9941 I0.5 J0.0
G2 X131.8098 I0.25 J-0.433
G2 X132.0598 Y382.5611 I-0.25 J-0.433
G2 X131.8098 Y382.1281 I-0.5 J0.0
G2 X131.3098 I-0.25 J0.433
G0 F200
( Contour15 )
S1000
G0 Z3.0
G0 X171.3098 Y375.1281
G0 Z1.0
G1 F20.0 Z-1.0
G2 F150.0 X171.0598 Y375.5611 I0.25 J0.433
G2 X171.3098 Y375.9941 I0.5 J0.0
G2 X171.8098 I0.25 J-0.433
G2 X172.0598 Y375.5611 I-0.25 J-0.433
G2 X171.8098 Y375.1281 I-0.5 J0.0
G2 X171.3098 I-0.25 J0.433
G1 F20.0 Z-2.0
G2 F150.0 X171.0598 Y375.5611 I0.25 J0.433
G2 X171.3098 Y375.9941 I0.5 J0.0
G2 X171.8098 I0.25 J-0.433
G2 X172.0598 Y375.5611 I-0.25 J-0.433
G2 X171.8098 Y375.1281 I-0.5 J0.0
G2 X171.3098 I-0.25 J0.433
G1 F20.0 Z-3.0
G2 F150.0 X171.0598 Y375.5611 I0.25 J0.433
G2 X171.3098 Y375.9941 I0.5 J0.0
G2 X171.8098 I0.25 J-0.433
G2 X172.0598 Y375.5611 I-0.25 J-0.433
G2 X171.8098 Y375.1281 I-0.5 J0.0
G2 X171.3098 I-0.25 J0.433
G1 F20.0 Z-4.0
G2 F150.0 X171.0598 Y375.5611 I0.25 J0.433
G2 X171.3098 Y375.9941 I0.5 J0.0
G2 X171.8098 I0.25 J-0.433
G2 X172.0598 Y375.5611 I-0.25 J-0.433
G2 X171.8098 Y375.1281 I-0.5 J0.0
G2 X171.3098 I-0.25 J0.433
G1 F20.0 Z-5.0
G2 F150.0 X171.0598 Y375.5611 I0.25 J0.433
G2 X171.3098 Y375.9941 I0.5 J0.0
G2 X171.8098 I0.25 J-0.433
G2 X172.0598 Y375.5611 I-0.25 J-0.433
G2 X171.8098 Y375.1281 I-0.5 J0.0
G2 X171.3098 I-0.25 J0.433
G0 F200
( Contour16 )
S1000
G0 Z3.0
G0 Y328.1281
G0 Z1.0
G1 F20.0 Z-1.0
G2 F150.0 X171.0598 Y328.5611 I0.25 J0.433
G2 X171.3098 Y328.9941 I0.5 J0.0
G2 X171.8098 I0.25 J-0.433
G2 X172.0598 Y328.5611 I-0.25 J-0.433
G2 X171.8098 Y328.1281 I-0.5 J0.0
G2 X171.3098 I-0.25 J0.433
G1 F20.0 Z-2.0
G2 F150.0 X171.0598 Y328.5611 I0.25 J0.433
G2 X171.3098 Y328.9941 I0.5 J0.0
G2 X171.8098 I0.25 J-0.433
G2 X172.0598 Y328.5611 I-0.25 J-0.433
G2 X171.8098 Y328.1281 I-0.5 J0.0
G2 X171.3098 I-0.25 J0.433
G1 F20.0 Z-3.0
G2 F150.0 X171.0598 Y328.5611 I0.25 J0.433
G2 X171.3098 Y328.9941 I0.5 J0.0
G2 X171.8098 I0.25 J-0.433
G2 X172.0598 Y328.5611 I-0.25 J-0.433
G2 X171.8098 Y328.1281 I-0.5 J0.0
G2 X171.3098 I-0.25 J0.433
G1 F20.0 Z-4.0
G2 F150.0 X171.0598 Y328.5611 I0.25 J0.433
G2 X171.3098 Y328.9941 I0.5 J0.0
G2 X171.8098 I0.25 J-0.433
G2 X172.0598 Y328.5611 I-0.25 J-0.433
G2 X171.8098 Y328.1281 I-0.5 J0.0
G2 X171.3098 I-0.25 J0.433
G1 F20.0 Z-5.0
G2 F150.0 X171.0598 Y328.5611 I0.25 J0.433
G2 X171.3098 Y328.9941 I0.5 J0.0
G2 X171.8098 I0.25 J-0.433
G2 X172.0598 Y328.5611 I-0.25 J-0.433
G2 X171.8098 Y328.1281 I-0.5 J0.0
G2 X171.3098 I-0.25 J0.433
G0 F200
( Contour17 )
S1000
G0 Z3.0
G0 X131.3098 Y321.1281
G0 Z1.0
G1 F20.0 Z-1.0
G2 F150.0 X131.0598 Y321.5611 I0.25 J0.433
G2 X131.3098 Y321.9941 I0.5 J0.0
G2 X131.8098 I0.25 J-0.433
G2 X132.0598 Y321.5611 I-0.25 J-0.433
G2 X131.8098 Y321.1281 I-0.5 J0.0
G2 X131.3098 I-0.25 J0.433
G1 F20.0 Z-2.0
G2 F150.0 X131.0598 Y321.5611 I0.25 J0.433
G2 X131.3098 Y321.9941 I0.5 J0.0
G2 X131.8098 I0.25 J-0.433
G2 X132.0598 Y321.5611 I-0.25 J-0.433
G2 X131.8098 Y321.1281 I-0.5 J0.0
G2 X131.3098 I-0.25 J0.433
G1 F20.0 Z-3.0
G2 F150.0 X131.0598 Y321.5611 I0.25 J0.433
G2 X131.3098 Y321.9941 I0.5 J0.0
G2 X131.8098 I0.25 J-0.433
G2 X132.0598 Y321.5611 I-0.25 J-0.433
G2 X131.8098 Y321.1281 I-0.5 J0.0
G2 X131.3098 I-0.25 J0.433
G1 F20.0 Z-4.0
G2 F150.0 X131.0598 Y321.5611 I0.25 J0.433
G2 X131.3098 Y321.9941 I0.5 J0.0
G2 X131.8098 I0.25 J-0.433
G2 X132.0598 Y321.5611 I-0.25 J-0.433
G2 X131.8098 Y321.1281 I-0.5 J0.0
G2 X131.3098 I-0.25 J0.433
G1 F20.0 Z-5.0
G2 F150.0 X131.0598 Y321.5611 I0.25 J0.433
G2 X131.3098 Y321.9941 I0.5 J0.0
G2 X131.8098 I0.25 J-0.433
G2 X132.0598 Y321.5611 I-0.25 J-0.433
G2 X131.8098 Y321.1281 I-0.5 J0.0
G2 X131.3098 I-0.25 J0.433
G0 F200
( Contour18 )
S1000
G0 Z3.0
G0 X132.0 Y300.5611
G0 Z1.0
G1 F20.0 Z-1.0
G1 F150.0 X156.5598
G3 X157.5598 Y301.5611 I0.0 J1.0
G1 Y305.5611
G1 X175.5598
G1 Y301.5611
G3 X176.5598 Y300.5611 I1.0 J0.0
G1 X216.5598
G3 X217.5598 Y301.5611 I0.0 J1.0
G1 Y351.5611
G3 X216.5598 Y352.5611 I-1.0 J0.0
G1 X212.5598
G1 Y370.5611
G1 X216.5598
G3 X217.5598 Y371.5611 I0.0 J1.0
G1 Y421.5611
G3 X216.5598 Y422.5611 I-1.0 J0.0
G1 X176.5598
G3 X175.5598 Y421.5611 I0.0 J-1.0
G1 Y417.5611
G1 X157.5598
G1 Y421.5611
G3 X156.5598 Y422.5611 I-1.0 J0.0
G1 X76.5598
G3 X75.5598 Y421.5611 I0.0 J-1.0
G1 Y417.5611
G1 X57.5598
G1 Y421.5611
G3 X56.5598 Y422.5611 I-1.0 J0.0
G1 X16.5598
G3 X15.5598 Y421.5611 I0.0 J-1.0
G1 Y371.5611
G3 X16.5598 Y370.5611 I1.0 J0.0
G1 X20.5598
G1 Y352.5611
G1 X16.5598
G3 X15.5598 Y351.5611 I0.0 J-1.0
G1 Y301.5611
G3 X16.5598 Y300.5611 I1.0 J0.0
G1 X56.5598
G3 X57.5598 Y301.5611 I0.0 J1.0
G1 Y305.5611
G1 X75.5598
G1 Y301.5611
G3 X76.5598 Y300.5611 I1.0 J0.0
G1 X132.0
G1 F20.0 Z-2.0
G1 F150.0 X156.5598
G3 X157.5598 Y301.5611 I0.0 J1.0
G1 Y305.5611
G1 X175.5598
G1 Y301.5611
G3 X176.5598 Y300.5611 I1.0 J0.0
G1 X216.5598
G3 X217.5598 Y301.5611 I0.0 J1.0
G1 Y351.5611
G3 X216.5598 Y352.5611 I-1.0 J0.0
G1 X212.5598
G1 Y370.5611
G1 X216.5598
G3 X217.5598 Y371.5611 I0.0 J1.0
G1 Y421.5611
G3 X216.5598 Y422.5611 I-1.0 J0.0
G1 X176.5598
G3 X175.5598 Y421.5611 I0.0 J-1.0
G1 Y417.5611
G1 X157.5598
G1 Y421.5611
G3 X156.5598 Y422.5611 I-1.0 J0.0
G1 X76.5598
G3 X75.5598 Y421.5611 I0.0 J-1.0
G1 Y417.5611
G1 X57.5598
G1 Y421.5611
G3 X56.5598 Y422.5611 I-1.0 J0.0
G1 X16.5598
G3 X15.5598 Y421.5611 I0.0 J-1.0
G1 Y371.5611
G3 X16.5598 Y370.5611 I1.0 J0.0
G1 X20.5598
G1 Y352.5611
G1 X16.5598
G3 X15.5598 Y351.5611 I0.0 J-1.0
G1 Y301.5611
G3 X16.5598 Y300.5611 I1.0 J0.0
G1 X56.5598
G3 X57.5598 Y301.5611 I0.0 J1.0
G1 Y305.5611
G1 X75.5598
G1 Y301.5611
G3 X76.5598 Y300.5611 I1.0 J0.0
G1 X132.0
G1 F20.0 Z-3.0
G1 F150.0 X156.5598
G3 X157.5598 Y301.5611 I0.0 J1.0
G1 Y305.5611
G1 X163.5
G1 X165.0 Z-2.0
G1 X167.0
G1 X168.5 Z-3.0
G1 X175.5598
G1 Y301.5611
G3 X176.5598 Y300.5611 I1.0 J0.0
G1 X216.5598
G3 X217.5598 Y301.5611 I0.0 J1.0
G1 Y351.5611
G3 X216.5598 Y352.5611 I-1.0 J0.0
G1 X212.5598
G1 Y358.5
G1 Y360.0 Z-2.0
G1 Y362.0
G1 Y363.5 Z-3.0
G1 Y370.5611
G1 X216.5598
G3 X217.5598 Y371.5611 I0.0 J1.0
G1 Y421.5611
G3 X216.5598 Y422.5611 I-1.0 J0.0
G1 X176.5598
G3 X175.5598 Y421.5611 I0.0 J-1.0
G1 Y417.5611
G1 X169.5
G1 X168.0 Z-2.0
G1 X166.0
G1 X164.5 Z-3.0
G1 X157.5598
G1 Y421.5611
G3 X156.5598 Y422.5611 I-1.0 J0.0
G1 X76.5598
G3 X75.5598 Y421.5611 I0.0 J-1.0
G1 Y417.5611
G1 X68.5
G1 X67.0 Z-2.0
G1 X65.0
G1 X63.5 Z-3.0
G1 X57.5598
G1 Y421.5611
G3 X56.5598 Y422.5611 I-1.0 J0.0
G1 X16.5598
G3 X15.5598 Y421.5611 I0.0 J-1.0
G1 Y371.5611
G3 X16.5598 Y370.5611 I1.0 J0.0
G1 X20.5598
G1 Y363.5
G1 Y362.0 Z-2.0
G1 Y360.0
G1 Y358.5 Z-3.0
G1 Y352.5611
G1 X16.5598
G3 X15.5598 Y351.5611 I0.0 J-1.0
G1 Y301.5611
G3 X16.5598 Y300.5611 I1.0 J0.0
G1 X56.5598
G3 X57.5598 Y301.5611 I0.0 J1.0
G1 Y305.5611
G1 X64.5
G1 X66.0 Z-2.0
G1 X68.0
G1 X69.5 Z-3.0
G1 X75.5598
G1 Y301.5611
G3 X76.5598 Y300.5611 I1.0 J0.0
G1 X132.0
G1 F20.0 Z-4.0
G1 F150.0 X156.5598
G3 X157.5598 Y301.5611 I0.0 J1.0
G1 Y305.5611
G1 X163.5
G1 X165.0 Z-2.0
G1 X167.0
G1 X168.5 Z-4.0
G1 X175.5598
G1 Y301.5611
G3 X176.5598 Y300.5611 I1.0 J0.0
G1 X216.5598
G3 X217.5598 Y301.5611 I0.0 J1.0
G1 Y351.5611
G3 X216.5598 Y352.5611 I-1.0 J0.0
G1 X212.5598
G1 Y358.5
G1 Y360.0 Z-2.0
G1 Y362.0
G1 Y363.5 Z-4.0
G1 Y370.5611
G1 X216.5598
G3 X217.5598 Y371.5611 I0.0 J1.0
G1 Y421.5611
G3 X216.5598 Y422.5611 I-1.0 J0.0
G1 X176.5598
G3 X175.5598 Y421.5611 I0.0 J-1.0
G1 Y417.5611
G1 X169.5
G1 X168.0 Z-2.0
G1 X166.0
G1 X164.5 Z-4.0
G1 X157.5598
G1 Y421.5611
G3 X156.5598 Y422.5611 I-1.0 J0.0
G1 X76.5598
G3 X75.5598 Y421.5611 I0.0 J-1.0
G1 Y417.5611
G1 X68.5
G1 X67.0 Z-2.0
G1 X65.0
G1 X63.5 Z-4.0
G1 X57.5598
G1 Y421.5611
G3 X56.5598 Y422.5611 I-1.0 J0.0
G1 X16.5598
G3 X15.5598 Y421.5611 I0.0 J-1.0
G1 Y371.5611
G3 X16.5598 Y370.5611 I1.0 J0.0
G1 X20.5598
G1 Y363.5
G1 Y362.0 Z-2.0
G1 Y360.0
G1 Y358.5 Z-4.0
G1 Y352.5611
G1 X16.5598
G3 X15.5598 Y351.5611 I0.0 J-1.0
G1 Y301.5611
G3 X16.5598 Y300.5611 I1.0 J0.0
G1 X56.5598
G3 X57.5598 Y301.5611 I0.0 J1.0
G1 Y305.5611
G1 X64.5
G1 X66.0 Z-2.0
G1 X68.0
G1 X69.5 Z-4.0
G1 X75.5598
G1 Y301.5611
G3 X76.5598 Y300.5611 I1.0 J0.0
G1 X132.0
G1 F20.0 Z-5.0
G1 F150.0 X156.5598
G3 X157.5598 Y301.5611 I0.0 J1.0
G1 Y305.5611
G1 X163.5
G1 X165.0 Z-2.0
G1 X167.0
G1 X168.5 Z-5.0
G1 X175.5598
G1 Y301.5611
G3 X176.5598 Y300.5611 I1.0 J0.0
G1 X216.5598
G3 X217.5598 Y301.5611 I0.0 J1.0
G1 Y351.5611
G3 X216.5598 Y352.5611 I-1.0 J0.0
G1 X212.5598
G1 Y358.5
G1 Y360.0 Z-2.0
G1 Y362.0
G1 Y363.5 Z-5.0
G1 Y370.5611
G1 X216.5598
G3 X217.5598 Y371.5611 I0.0 J1.0
G1 Y421.5611
G3 X216.5598 Y422.5611 I-1.0 J0.0
G1 X176.5598
G3 X175.5598 Y421.5611 I0.0 J-1.0
G1 Y417.5611
G1 X169.5
G1 X168.0 Z-2.0
G1 X166.0
G1 X164.5 Z-5.0
G1 X157.5598
G1 Y421.5611
G3 X156.5598 Y422.5611 I-1.0 J0.0
G1 X76.5598
G3 X75.5598 Y421.5611 I0.0 J-1.0
G1 Y417.5611
G1 X68.5
G1 X67.0 Z-2.0
G1 X65.0
G1 X63.5 Z-5.0
G1 X57.5598
G1 Y421.5611
G3 X56.5598 Y422.5611 I-1.0 J0.0
G1 X16.5598
G3 X15.5598 Y421.5611 I0.0 J-1.0
G1 Y371.5611
G3 X16.5598 Y370.5611 I1.0 J0.0
G1 X20.5598
G1 Y363.5
G1 Y362.0 Z-2.0
G1 Y360.0
G1 Y358.5 Z-5.0
G1 Y352.5611
G1 X16.5598
G3 X15.5598 Y351.5611 I0.0 J-1.0
G1 Y301.5611
G3 X16.5598 Y300.5611 I1.0 J0.0
G1 X56.5598
G3 X57.5598 Y301.5611 I0.0 J1.0
G1 Y305.5611
G1 X64.5
G1 X66.0 Z-2.0
G1 X68.0
G1 X69.5 Z-5.0
G1 X75.5598
G1 Y301.5611
G3 X76.5598 Y300.5611 I1.0 J0.0
G1 X132.0
G0 F200
( Contour19 )
S1000
G0 Z3.0
G0 X235.5628 Y222.1535
G0 Z1.0
G1 F20.0 Z-1.0
G1 F150.0 X238.8775 Y209.9996
G1 X235.0185 Y208.9471
G3 X234.3168 Y207.7192 I0.2631 J-0.9648
G1 X239.5791 Y188.424
G3 X240.807 Y187.7223 I0.9648 J0.2631
G1 X244.6661 Y188.7748
G1 X256.7718 Y144.3872
G3 X257.7366 Y143.6503 I0.9648 J0.2631
G1 X271.7366
G1 Y139.6503
G3 X272.7366 Y138.6503 I1.0 J0.0
G1 X292.7366
G3 X293.7366 Y139.6503 I0.0 J1.0
G1 Y143.6503
G1 X307.7366
G3 X308.7366 Y144.6503 I0.0 J1.0
G1 Y188.6503
G1 X312.7366
G3 X313.7366 Y189.6503 I0.0 J1.0
G1 Y209.6503
G3 X312.7366 Y210.6503 I-1.0 J0.0
G1 X308.7366
G1 Y254.6503
G3 X307.7366 Y255.6503 I-1.0 J0.0
G1 X278.7366
G1 Y259.6503
G3 X277.7366 Y260.6503 I-1.0 J0.0
G1 X257.7366
G3 X256.7366 Y259.6503 I0.0 J-1.0
G1 Y255.6503
G1 X227.7366
G3 X226.7718 Y254.3872 I0.0 J-1.0
G1 X235.5628 Y222.1535
G1 F20.0 Z-2.0
G1 F150.0 X238.8775 Y209.9996
G1 X235.0185 Y208.9471
G3 X234.3168 Y207.7192 I0.2631 J-0.9648
G1 X239.5791 Y188.424
G3 X240.807 Y187.7223 I0.9648 J0.2631
G1 X244.6661 Y188.7748
G1 X256.7718 Y144.3872
G3 X257.7366 Y143.6503 I0.9648 J0.2631
G1 X271.7366
G1 Y139.6503
G3 X272.7366 Y138.6503 I1.0 J0.0
G1 X292.7366
G3 X293.7366 Y139.6503 I0.0 J1.0
G1 Y143.6503
G1 X307.7366
G3 X308.7366 Y144.6503 I0.0 J1.0
G1 Y188.6503
G1 X312.7366
G3 X313.7366 Y189.6503 I0.0 J1.0
G1 Y209.6503
G3 X312.7366 Y210.6503 I-1.0 J0.0
G1 X308.7366
G1 Y254.6503
G3 X307.7366 Y255.6503 I-1.0 J0.0
G1 X278.7366
G1 Y259.6503
G3 X277.7366 Y260.6503 I-1.0 J0.0
G1 X257.7366
G3 X256.7366 Y259.6503 I0.0 J-1.0
G1 Y255.6503
G1 X227.7366
G3 X226.7718 Y254.3872 I0.0 J-1.0
G1 X235.5628 Y222.1535
G1 F20.0 Z-3.0
G1 F150.0 X238.8775 Y209.9996
G1 X235.0185 Y208.9471
G3 X234.3168 Y207.7192 I0.2631 J-0.9648
G1 X236.0581 Y201.3344
G1 X236.4528 Y199.8873 Z-2.0
G1 X236.979 Y197.9578
G1 X237.3737 Y196.5106 Z-3.0
G1 X239.5791 Y188.424
G3 X240.807 Y187.7223 I0.9648 J0.2631
G1 X244.6661 Y188.7748
G1 X256.7718 Y144.3872
G3 X257.7366 Y143.6503 I0.9648 J0.2631
G1 X271.7366
G1 Y139.6503
G3 X272.7366 Y138.6503 I1.0 J0.0
G1 X281.5
G1 X283.0 Z-2.0
G1 X285.0
G1 X286.5 Z-3.0
G1 X292.7366
G3 X293.7366 Y139.6503 I0.0 J1.0
G1 Y143.6503
G1 X307.7366
G3 X308.7366 Y144.6503 I0.0 J1.0
G1 Y188.6503
G1 X312.7366
G3 X313.7366 Y189.6503 I0.0 J1.0
G1 Y196.5
G1 Y198.0 Z-2.0
G1 Y200.0
G1 Y201.5 Z-3.0
G1 Y209.6503
G3 X312.7366 Y210.6503 I-1.0 J0.0
G1 X308.7366
G1 Y254.6503
G3 X307.7366 Y255.6503 I-1.0 J0.0
G1 X278.7366
G1 Y259.6503
G3 X277.7366 Y260.6503 I-1.0 J0.0
G1 X269.5
G1 X268.0 Z-2.0
G1 X266.0
G1 X264.5 Z-3.0
G1 X257.7366
G3 X256.7366 Y259.6503 I0.0 J-1.0
G1 Y255.6503
G1 X227.7366
G3 X226.7718 Y254.3872 I0.0 J-1.0
G1 X235.5628 Y222.1535
G1 F20.0 Z-4.0
G1 F150.0 X238.8775 Y209.9996
G1 X235.0185 Y208.9471
G3 X234.3168 Y207.7192 I0.2631 J-0.9648
G1 X236.0581 Y201.3344
G1 X236.4528 Y199.8873 Z-2.0
G1 X236.979 Y197.9578
G1 X237.3737 Y196.5106 Z-4.0
G1 X239.5791 Y188.424
G3 X240.807 Y187.7223 I0.9648 J0.2631
G1 X244.6661 Y188.7748
G1 X256.7718 Y144.3872
G3 X257.7366 Y143.6503 I0.9648 J0.2631
G1 X271.7366
G1 Y139.6503
G3 X272.7366 Y138.6503 I1.0 J0.0
G1 X281.5
G1 X283.0 Z-2.0
G1 X285.0
G1 X286.5 Z-4.0
G1 X292.7366
G3 X293.7366 Y139.6503 I0.0 J1.0
G1 Y143.6503
G1 X307.7366
G3 X308.7366 Y144.6503 I0.0 J1.0
G1 Y188.6503
G1 X312.7366
G3 X313.7366 Y189.6503 I0.0 J1.0
G1 Y196.5
G1 Y198.0 Z-2.0
G1 Y200.0
G1 Y201.5 Z-4.0
G1 Y209.6503
G3 X312.7366 Y210.6503 I-1.0 J0.0
G1 X308.7366
G1 Y254.6503
G3 X307.7366 Y255.6503 I-1.0 J0.0
G1 X278.7366
G1 Y259.6503
G3 X277.7366 Y260.6503 I-1.0 J0.0
G1 X269.5
G1 X268.0 Z-2.0
G1 X266.0
G1 X264.5 Z-4.0
G1 X257.7366
G3 X256.7366 Y259.6503 I0.0 J-1.0
G1 Y255.6503
G1 X227.7366
G3 X226.7718 Y254.3872 I0.0 J-1.0
G1 X235.5628 Y222.1535
G1 F20.0 Z-5.0
G1 F150.0 X238.8775 Y209.9996
G1 X235.0185 Y208.9471
G3 X234.3168 Y207.7192 I0.2631 J-0.9648
G1 X236.0581 Y201.3344
G1 X236.4528 Y199.8873 Z-2.0
G1 X236.979 Y197.9578
G1 X237.3737 Y196.5106 Z-5.0
G1 X239.5791 Y188.424
G3 X240.807 Y187.7223 I0.9648 J0.2631
G1 X244.6661 Y188.7748
G1 X256.7718 Y144.3872
G3 X257.7366 Y143.6503 I0.9648 J0.2631
G1 X271.7366
G1 Y139.6503
G3 X272.7366 Y138.6503 I1.0 J0.0
G1 X281.5
G1 X283.0 Z-2.0
G1 X285.0
G1 X286.5 Z-5.0
G1 X292.7366
G3 X293.7366 Y139.6503 I0.0 J1.0
G1 Y143.6503
G1 X307.7366
G3 X308.7366 Y144.6503 I0.0 J1.0
G1 Y188.6503
G1 X312.7366
G3 X313.7366 Y189.6503 I0.0 J1.0
G1 Y196.5
G1 Y198.0 Z-2.0
G1 Y200.0
G1 Y201.5 Z-5.0
G1 Y209.6503
G3 X312.7366 Y210.6503 I-1.0 J0.0
G1 X308.7366
G1 Y254.6503
G3 X307.7366 Y255.6503 I-1.0 J0.0
G1 X278.7366
G1 Y259.6503
G3 X277.7366 Y260.6503 I-1.0 J0.0
G1 X269.5
G1 X268.0 Z-2.0
G1 X266.0
G1 X264.5 Z-5.0
G1 X257.7366
G3 X256.7366 Y259.6503 I0.0 J-1.0
G1 Y255.6503
G1 X227.7366
G3 X226.7718 Y254.3872 I0.0 J-1.0
G1 X235.5628 Y222.1535
G0 F200
( Contour20 )
S1000
G0 Z3.0
G0 X240.0 Y127.9189
G0 Z1.0
G1 F20.0 Z-1.0
G1 F150.0 X229.8704
G3 X228.8704 Y126.9189 I0.0 J-1.0
G1 Y82.9189
G1 X224.8704
G3 X223.8704 Y81.9189 I0.0 J-1.0
G1 Y61.9189
G3 X224.8704 Y60.9189 I1.0 J0.0
G1 X228.8704
G1 Y16.9189
G3 X229.8704 Y15.9189 I1.0 J0.0
G1 X243.8704
G1 Y11.9189
G3 X244.8704 Y10.9189 I1.0 J0.0
G1 X264.8704
G3 X265.8704 Y11.9189 I0.0 J1.0
G1 Y15.9189
G1 X279.8704
G3 X280.8351 Y16.6558 I0.0 J1.0
G1 X292.9408 Y61.0434
G1 X296.7999 Y59.9909
G3 X298.0278 Y60.6925 I0.2631 J0.9648
G1 X303.2901 Y79.9878
G3 X302.5885 Y81.2157 I-0.9648 J0.2631
G1 X298.7294 Y82.2682
G1 X310.8351 Y126.6558
G3 X309.8704 Y127.9189 I-0.9648 J0.2631
G1 X280.8704
G1 Y131.9189
G3 X279.8704 Y132.9189 I-1.0 J0.0
G1 X259.8704
G3 X258.8704 Y131.9189 I0.0 J-1.0
G1 X258.8703 Y127.9189
G1 X240.0
G1 F20.0 Z-2.0
G1 F150.0 X229.8704
G3 X228.8704 Y126.9189 I0.0 J-1.0
G1 Y82.9189
G1 X224.8704
G3 X223.8704 Y81.9189 I0.0 J-1.0
G1 Y61.9189
G3 X224.8704 Y60.9189 I1.0 J0.0
G1 X228.8704
G1 Y16.9189
G3 X229.8704 Y15.9189 I1.0 J0.0
G1 X243.8704
G1 Y11.9189
G3 X244.8704 Y10.9189 I1.0 J0.0
G1 X264.8704
G3 X265.8704 Y11.9189 I0.0 J1.0
G1 Y15.9189
G1 X279.8704
G3 X280.8351 Y16.6558 I0.0 J1.0
G1 X292.9408 Y61.0434
G1 X296.7999 Y59.9909
G3 X298.0278 Y60.6925 I0.2631 J0.9648
G1 X303.2901 Y79.9878
G3 X302.5885 Y81.2157 I-0.9648 J0.2631
G1 X298.7294 Y82.2682
G1 X310.8351 Y126.6558
G3 X309.8704 Y127.9189 I-0.9648 J0.2631
G1 X280.8704
G1 Y131.9189
G3 X279.8704 Y132.9189 I-1.0 J0.0
G1 X259.8704
G3 X258.8704 Y131.9189 I0.0 J-1.0
G1 X258.8703 Y127.9189
G1 X240.0
G1 F20.0 Z-3.0
G1 F150.0 X229.8704
G3 X228.8704 Y126.9189 I0.0 J-1.0
G1 Y82.9189
G1 X224.8704
G3 X223.8704 Y81.9189 I0.0 J-1.0
G1 Y74.5
G1 Y73.0 Z-2.0
G1 Y71.0
G1 Y69.5 Z-3.0
G1 Y61.9189
G3 X224.8704 Y60.9189 I1.0 J0.0
G1 X228.8704
G1 Y16.9189
G3 X229.8704 Y15.9189 I1.0 J0.0
G1 X243.8704
G1 Y11.9189
G3 X244.8704 Y10.9189 I1.0 J0.0
G1 X251.5
G1 X253.0 Z-2.0
G1 X255.0
G1 X256.5 Z-3.0
G1 X264.8704
G3 X265.8704 Y11.9189 I0.0 J1.0
G1 Y15.9189
G1 X279.8704
G3 X280.8351 Y16.6558 I0.0 J1.0
G1 X292.9408 Y61.0434
G1 X296.7999 Y59.9909
G3 X298.0278 Y60.6925 I0.2631 J0.9648
G1 X299.9846 Y67.8675
G1 X300.3792 Y69.3146 Z-2.0
G1 X300.9055 Y71.2441
G1 X301.3001 Y72.6913 Z-3.0
G1 X303.2901 Y79.9878
G3 X302.5885 Y81.2157 I-0.9648 J0.2631
G1 X298.7294 Y82.2682
G1 X310.8351 Y126.6558
G3 X309.8704 Y127.9189 I-0.9648 J0.2631
G1 X280.8704
G1 Y131.9189
G3 X279.8704 Y132.9189 I-1.0 J0.0
G1 X273.5
G1 X272.0 Z-2.0
G1 X270.0
G1 X268.5 Z-3.0
G1 X259.8704
G3 X258.8704 Y131.9189 I0.0 J-1.0
G1 X258.8703 Y127.9189
G1 X240.0
G1 F20.0 Z-4.0
G1 F150.0 X229.8704
G3 X228.8704 Y126.9189 I0.0 J-1.0
G1 Y82.9189
G1 X224.8704
G3 X223.8704 Y81.9189 I0.0 J-1.0
G1 Y74.5
G1 Y73.0 Z-2.0
G1 Y71.0
G1 Y69.5 Z-4.0
G1 Y61.9189
G3 X224.8704 Y60.9189 I1.0 J0.0
G1 X228.8704
G1 Y16.9189
G3 X229.8704 Y15.9189 I1.0 J0.0
G1 X243.8704
G1 Y11.9189
G3 X244.8704 Y10.9189 I1.0 J0.0
G1 X251.5
G1 X253.0 Z-2.0
G1 X255.0
G1 X256.5 Z-4.0
G1 X264.8704
G3 X265.8704 Y11.9189 I0.0 J1.0
G1 Y15.9189
G1 X279.8704
G3 X280.8351 Y16.6558 I0.0 J1.0
G1 X292.9408 Y61.0434
G1 X296.7999 Y59.9909
G3 X298.0278 Y60.6925 I0.2631 J0.9648
G1 X299.9846 Y67.8675
G1 X300.3792 Y69.3146 Z-2.0
G1 X300.9055 Y71.2441
G1 X301.3001 Y72.6913 Z-4.0
G1 X303.2901 Y79.9878
G3 X302.5885 Y81.2157 I-0.9648 J0.2631
G1 X298.7294 Y82.2682
G1 X310.8351 Y126.6558
G3 X309.8704 Y127.9189 I-0.9648 J0.2631
G1 X280.8704
G1 Y131.9189
G3 X279.8704 Y132.9189 I-1.0 J0.0
G1 X273.5
G1 X272.0 Z-2.0
G1 X270.0
G1 X268.5 Z-4.0
G1 X259.8704
G3 X258.8704 Y131.9189 I0.0 J-1.0
G1 X258.8703 Y127.9189
G1 X240.0
G1 F20.0 Z-5.0
G1 F150.0 X229.8704
G3 X228.8704 Y126.9189 I0.0 J-1.0
G1 Y82.9189
G1 X224.8704
G3 X223.8704 Y81.9189 I0.0 J-1.0
G1 Y74.5
G1 Y73.0 Z-2.0
G1 Y71.0
G1 Y69.5 Z-5.0
G1 Y61.9189
G3 X224.8704 Y60.9189 I1.0 J0.0
G1 X228.8704
G1 Y16.9189
G3 X229.8704 Y15.9189 I1.0 J0.0
G1 X243.8704
G1 Y11.9189
G3 X244.8704 Y10.9189 I1.0 J0.0
G1 X251.5
G1 X253.0 Z-2.0
G1 X255.0
G1 X256.5 Z-5.0
G1 X264.8704
G3 X265.8704 Y11.9189 I0.0 J1.0
G1 Y15.9189
G1 X279.8704
G3 X280.8351 Y16.6558 I0.0 J1.0
G1 X292.9408 Y61.0434
G1 X296.7999 Y59.9909
G3 X298.0278 Y60.6925 I0.2631 J0.9648
G1 X299.9846 Y67.8675
G1 X300.3792 Y69.3146 Z-2.0
G1 X300.9055 Y71.2441
G1 X301.3001 Y72.6913 Z-5.0
G1 X303.2901 Y79.9878
G3 X302.5885 Y81.2157 I-0.9648 J0.2631
G1 X298.7294 Y82.2682
G1 X310.8351 Y126.6558
G3 X309.8704 Y127.9189 I-0.9648 J0.2631
G1 X280.8704
G1 Y131.9189
G3 X279.8704 Y132.9189 I-1.0 J0.0
G1 X273.5
G1 X272.0 Z-2.0
G1 X270.0
G1 X268.5 Z-5.0
G1 X259.8704
G3 X258.8704 Y131.9189 I0.0 J-1.0
G1 X258.8703 Y127.9189
G1 X240.0
G0 F200
G0 Z3.0
M5
M30
